X: 1749
T: New Mexico Waltz
B: australian traditional tunes wiki
M:3/4
L:1/8
R: Waltz
Q: 1/4=100
K:D
V:1 
dB|"D"AF3E2|D4dc|"G"B2B2c2|d4Bc|d3cB2|"D"(3ABA F2A2|B3AF2|"A7"E4cB|
"D"AF3E2|D4dc|"G"B2B2c2|d4Bc|"D"d3AF2|"A7"G2F2E2|"D"D3ED2|D4A2||
"D"d3cd2|(3fgf e2d2|"G"B3cd2|"D"(3ABA F2A2|d3cd2|(3fgfe2d2|"A7"e3fe2|e4Bc|
"D"d3cd2|(3fgf e2d2|"G"B3cd2|"D"(3ABA F2A2|"G"B3gf2|"A7"(3efed2c2|"D"d3cd2|d6||
% abcbook-tune_id 6342d53afab50fec0cfa530e


% abcbook-boost 0
% abcbook-tablature 
% abcbook-transpose 
% abcbook-lastupdated 1665324381679
% abcbook-soundfonts 
% abcbook-repeats 1
% NFF Book 2010

